X:4036
T:Denis Murphy's slide
R:Slide
O:Ireland
M:12/8
L:1/8
K:D
dB|A2D FED F2A A2f|gfe fed e2d BdB|A2D FED F2A A2f|a2f efe d3 d:|
|:zA|D2E F2F GFE F2F|GFE FED E2D B,A,B,|D2E F2F GFE F2G|A2F EFE D3 D2:|


